X:22
T:Bob Perry's. ThoH.022
Q:1/2=90
M:3/2
L:1/8
B:Thompson's Compleat Collection of 120 Favourite Hornpipes.
Z:Village Music Project, Simon Wilson 2016
O:England.
K:Eb
(EB,)(GE) (BG)(FE)D2E2|(egfe) (defd)e2E2|(cBAG) (AcBd) (cd)e2|(GEDE) (B,EDF)E4:|
|:TeE(GB) (eB)(cA) (GF)E2|B2(cd) (ecde)d4|(egbg) (egfe) (dcBA)|(GEDE) B,EDFE4:|
|:TE3B, (C_D)(CB,) A,B,C2|TF3C (DE)(DC) B,CD2|TG3D (EF)(ED) (CD)E2|(GEDE) (CEDF)E4:|
|:e2E2(efga) bge2|c2(fg) (af)(ge) (df)B2|b2(ag) (afge) (dcBA)|(GEDE) (CEDF)E4:|

